X:1
T:Ben Rhydding, SM
T:Alexander Robert Reinagle, 1866
T:Ben Rhydding, SM
T:Public Domain
C:Alexander Robert Reinagle, 1866
Z:Public Domain
%%score ( 1 2 ) ( 3 4 )
L:1/8
M:4/4
K:Eb
V:1 treble 
V:2 treble 
V:3 bass 
V:4 bass 
V:1
 [B,E]2 | [EG]2 [EA]2 [EB]2 (cd) | [Ge]6 [Fd]2 | [Cc]2 [CG]2 B2 z C x | [B,G]6 [EG]2 | %5
 [CA]2 [CF]2 [B,B]2 [B,D]2 | E2 [B,F]2 [B,G]2 [Cc]2 | [EB]2 [_DE]2 [CE]2 [B,=D]2 | [B,E]6 |] %9
V:2
 x2 | x6 A2 | x8 | x4 D3 =A2 | x8 | x8 | E2 x6 | x8 | x6 |] %9
V:3
 [E,G,]2 | [E,B,]2 [A,C]2 [G,B,]2 [F,F]2 | [C,E]6 [D,B,]2 | [E,G,]2 [E,G,]2 [D,G,]2 [D,^F,]2 x | %4
 G,6 [E,B,]2 | [F,A,]2 [E,A,]2 [D,A,]2 [B,,A,]2 | [C,G,]2 [D,F,]2 E,2 [A,,E,]2 | %7
 [G,,B,]2 [G,,B,]2 [A,,F,]2 [B,,A,]2 | [E,G,]6 |] %9
V:4
 x2 | x8 | x8 | x9 | G,6 x2 | x8 | x8 | x8 | x6 |] %9

